teeny/solid/paypal.svg

<svg width="15" height="15" viewBox="0 0 15 15" fill="none" xmlns="http://www.w3.org/2000/svg">
<path fill-rule="evenodd" clip-rule="evenodd" d="M3.01493 0.378732C3.07058 0.156149 3.27057 0 3.5 0H8.16104C10.5583 0 12.3523 1.95748 12.3647 4.17206C14.2927 4.79825 15.3862 7.02313 14.4695 9.00923C13.7687 10.5276 12.249 11.5 10.5767 11.5H9.37716L8.48077 14.6374C8.41944 14.852 8.22325 15 8 15H4C3.84604 15 3.70066 14.9291 3.6059 14.8077C3.51115 14.6863 3.47759 14.5281 3.51493 14.3787L3.85962 13H0.500005C0.346037 13 0.200655 12.9291 0.105902 12.8077C0.0111482 12.6863 -0.0224094 12.5281 0.0149333 12.3787L3.01493 0.378732ZM8.16104 1C9.92319 1 11.2575 2.38818 11.3578 4.00117C11.3268 4.00039 11.2957 4 11.2644 4H6.5C6.27057 4 6.07058 4.15615 6.01493 4.37873L4.10962 12H1.14039L3.89039 1H8.16104ZM7.29496 9H5.89039L4.64039 14H7.62285L8.51924 10.8626C8.58057 10.648 8.77676 10.5 9 10.5H10.5767C11.8589 10.5 13.0242 9.75443 13.5615 8.59018C14.1878 7.23324 13.5049 5.72079 12.2427 5.19362C12.2031 5.35415 12.1535 5.51468 12.0935 5.67459C11.3434 7.67485 9.43124 9 7.29496 9Z" fill="black"/>
</svg>

<svg viewBox="0 0 15 15" xmlns="http://www.w3.org/2000/svg"><path fill-rule="evenodd" d="M3.01.37c.05-.23.25-.38.48-.38h4.66c2.39 0 4.19 1.95 4.2 4.17 1.92.62 3.02 2.85 2.1 4.83 -.71 1.51-2.23 2.49-3.9 2.49h-1.2l-.9 3.13c-.07.21-.26.36-.49.36h-4c-.16 0-.3-.08-.4-.2 -.1-.13-.13-.28-.1-.43l.34-1.38H.44c-.16 0-.3-.08-.4-.2 -.1-.13-.13-.28-.1-.43l2.99-12Zm5.14.62c1.76 0 3.09 1.38 3.19 3 -.04-.01-.07-.01-.1-.01H6.47c-.23 0-.43.15-.49.37l-1.91 7.62H1.1l2.75-11h4.27Zm-.87 8H5.87l-1.25 5H7.6l.89-3.14c.06-.22.25-.37.48-.37h1.57c1.28 0 2.44-.75 2.98-1.91 .62-1.36-.06-2.87-1.32-3.4 -.04.16-.09.32-.15.48 -.76 2-2.67 3.32-4.8 3.32Z"/></svg>
